img/netflix.svg

<svg width="96" height="26" viewBox="0 0 96 26" fill="none" xmlns="http://www.w3.org/2000/svg">
<path fill-rule="evenodd" clip-rule="evenodd" d="M10.7599 24.3498H10.7599L10.7597 24.3499L10.7596 24.3499C10.2071 24.4065 9.64628 24.464 9.072 24.5347L4.464 11.2038V25.1019C3.024 25.2438 1.728 25.4328 0.335999 25.6692V0.189209H4.176L9.408 14.6547V0.189209H13.488V24.0147C12.5865 24.1626 11.685 24.255 10.7599 24.3498ZM24.2917 9.50025L24.2919 9.50025L24.292 9.50024C25.2457 9.47719 26.1772 9.45466 26.88 9.45466V13.4256C25.104 13.4256 22.992 13.4256 21.456 13.5201V19.4292C22.2039 19.3841 22.9567 19.3342 23.7128 19.2841L23.7128 19.2841L23.7129 19.2841L23.713 19.2841H23.7131H23.7131H23.7131H23.7131H23.7131H23.7132H23.7132C25.3346 19.1767 26.9713 19.0682 28.608 19.0038V22.8328L17.424 23.6838V0.189209H28.608V4.16012H21.456V9.54921C22.2668 9.54921 23.2914 9.52444 24.2915 9.50025L24.2916 9.50025H24.2917H24.2917ZM39.408 4.20739H43.584C43.584 4.20739 43.584 0.189209 43.632 0.189209H31.2V4.20739H35.376V22.5492C36.672 22.5019 38.064 22.5019 39.408 22.5019V4.20739ZM50.16 9.26557H55.68V13.2365H50.16V22.2656H46.176V0.189209H57.456V4.16012H50.16V9.26557ZM68.2178 18.9574C66.8297 18.8771 65.4308 18.7961 64.032 18.7674V0.189209H60V22.5019C63.696 22.5965 67.296 22.7856 70.896 23.0219V19.0983C70.0097 19.0612 69.116 19.0094 68.2178 18.9574ZM75.6664 23.3927L75.6665 23.3927C76.5314 23.4442 77.4097 23.4965 78.288 23.5892V0.189209H74.304V23.3056C74.753 23.3383 75.2078 23.3654 75.6664 23.3927ZM90.816 12.291L95.952 0.189209H91.488L88.656 6.85466L86.016 0.189209H81.696L86.4 12.1492L81.216 23.7783C81.792 23.8539 82.368 23.9144 82.944 23.975C83.808 24.0657 84.672 24.1565 85.536 24.2983L88.512 17.5383L91.392 24.9128C91.9299 24.9956 92.4619 25.0842 92.9922 25.1725C93.9761 25.3363 94.9539 25.4991 95.952 25.6219L90.816 12.291Z" fill="white"/>
</svg>

<svg width="96" height="26" fill="none" xmlns="http://www.w3.org/2000/svg"><path fill-rule="evenodd" clip-rule="evenodd" d="M10.76 24.35c-.553.056-1.114.114-1.688.184l-4.608-13.33v13.898c-1.44.142-2.736.33-4.128.567V.19h3.84l5.232 14.466V.189h4.08v23.826c-.902.148-1.803.24-2.728.335ZM24.292 9.5a119.19 119.19 0 0 1 2.588-.045v3.97c-1.776 0-3.888 0-5.424.095v5.91c.748-.046 1.5-.096 2.257-.146 1.622-.107 3.258-.216 4.895-.28v3.829l-11.184.85V.19h11.184V4.16h-7.152v5.39c.81 0 1.835-.026 2.835-.05Zm15.116-5.293h4.176s0-4.018.048-4.018H31.2v4.018h4.176V22.55c1.296-.047 2.688-.047 4.032-.047V4.207ZM50.16 9.265h5.52v3.971h-5.52v9.03h-3.984V.188h11.28V4.16H50.16v5.105Zm18.058 9.692a112.27 112.27 0 0 0-4.186-.19V.19H60v22.313c3.696.094 7.296.283 10.896.52v-3.924c-.886-.037-1.78-.089-2.678-.14Zm7.448 4.436c.865.051 1.744.103 2.622.196V.19h-3.984v23.116c.449.033.904.06 1.362.088Zm15.15-11.102L95.952.189h-4.464l-2.832 6.666-2.64-6.666h-4.32L86.4 12.15l-5.184 11.63c.576.075 1.152.135 1.728.196.864.09 1.728.181 2.592.323l2.976-6.76 2.88 7.375c.538.082 1.07.171 1.6.26.984.163 1.962.326 2.96.449L90.816 12.29Z" fill="#fff"/></svg>
